X: 4
T: The Boy In The Gap
R: reel
M: 4/4
L: 1/8
K: Dmaj
|:D2FA d3c|A2GE cEGE|D2FA dedc|1 A2GE EDEF:|2 A2GE EDD2|||:~f3e fedf|egfd edcB|A2cd edcd|eaag efge|~f3e fedf|egfd edcB|A2cd efdc|A2GE EDD2:|||:df~f2 df~f2|ce~e2 gece|dffe ~f3g|a2ge fdde|fdef dcAF|GBEF GBAF|D2FA dedc|1 A2GE EDD2:|2 A2GE EDEF||


Tune 1579	Setting 1579

